X:1
T:Qui de terra est
T:Qui de terra est
T:(4 vocum)
T:Andreas Raselius (ca. 1563-1602)
T:© Edition Monika Feinen, Creative Commons Attribution-NonCommercial-ShareAlike 4.0
T:© Edition Monika Feinen, Creative Commons Attribution-NonCommercial-ShareAlike 4.0
T:© Edition Monika Feinen, Creative Commons Attribution-NonCommercial-ShareAlike 4.0
C:Andreas Raselius
Z:© Edition Monika Feinen, Creative Commons Attribution-NonCommercial-ShareAlike 4.0
%%score [ 1 2 3 4 ]
L:1/8
Q:1/2=80
M:4/2
K:C
V:1 treble nm="Cantus"
V:2 treble nm="Altus"
V:3 treble-8 nm="Tenor"
V:4 bass nm="Bassus"
V:1
 G12 A4 | G4 F4 G4 G4 | c4 c8 A4 | c4 G8 A4 | G4 F4 G8 | z4 c8 d4 | c4 B4 c8 | z4 F4 G4 G4- | %8
w: Qui de|ter- ra est, qui|de ter- ra|est, qui de|ter- ra est,|qui de|ter- ra est,|qui de ter-|
 G4 F4 F4 E4- | E4 F4 E2 DE F4- | F4 E4 F4 F4 | A12 A4 | ^F4 G4 G4 F4 | G4 G4 F4 E4 | F4 F8 E4 | %15
w: * ra est, qui|_ de ter- * * *|* ra est, de|ter- ra|est, de ter- ra|est, de ter- ra|est, et de|
 F2 G2 A8 A4 | G4 ^F4 G8 | A4 c4 f8 | e4 g6 f2 f4- | f2 e2 f2 d2 e2 f4 e2 | f8 z8 | c4 B4 c6 G2 | %22
w: ter- * * ra|lo- qui- tur,|qui de cae-|lo ve- * nit,|_ _ _ _ _ _ _||qui de cae- lo,|
 g4 e2 c2 d2 e4 d2 | e8 d8 | c8 B4 B2 B2- | B2 B2 c2 G4 A2 A2 A2 | A8 z4 c4 | c2 c4 c2 c2 A2 B4 | %28
w: qui de cae- lo ve- *||nit, su- per om-|* nes est, su- per om- nes|est, et|qui vi- dit et au- di-|
 c4 e4 e2 f4 d2 | e2 f2 e4 f4 d4- | d2 c2 c6 BA B4 | c8 F4 G4 | A4 d4 d4 B4 | ^c4 d4 e2 A2 A4 | %34
w: vit, et qui vi- dit|et au- di- vit hoc|_ te- sta- * * *|tur, hoc te-|sta- tur, hoc te-|sta- tur, hoc te- sta-|
 A6 GA B4 A4 | A4 c2 c4 B2 c2 c2 | c2 BA B4 c4 c4 | B8 c2 A2 c2 c2 | F2 f4 e2 f2 f2 c2 d2 | %39
w: tur, _ _ _ et|te- sti- mo- ni- um e-|* * * * ius, e-|ius ne- mo ac- ci-|pit, ne- mo ac- ci- pit, ne-|
 e2 f4 e2 f4 g4 | G4 A8 G4 | A16 |] %42
w: mo ac- ci- pit, ne-|mo ac- ci-|pit.|
V:2
 z8 C8- | C4 D4 C4 B,4 | C4 E8 F4 | E4 D4 E4 E4- | E4 F4 E4 D4 | E8 F2 E2 F2 G2 | A4 D4 F4 G4 | %7
w: Qui|_ de ter- ra|est, qui de|ter- ra est, qui|_ de ter- ra|est, qui _ _ _|_ de ter- ra|
 A8 E4 D4 | E4 C4 C4 C4- | C4 C4 C4 A,4 | C12 D4 | E4 D8 ^C4 | D4 _B,4 A,4 A,4 | G,8 z4 G4 | %14
w: est, qui de|ter- ra est, qui|_ de ter- ra|est, qui|de ter- ra|est, de ter- ra|est, et|
 A4 D8 ^C4 | D2 E2 F8 F4 | D4 C4 D8 | E4 G4 A4 c4 | c6 c2 c4 c4 | F8 c8 | c4 C4 E4 D4 | %21
w: de ter- ra|lo- * * qui-|tur, qui de|cae- lo ve- nit,|qui de cae- lo|ve- nit,|qui de cae- lo|
 E4 G6 F2 E4 | c4 c4 B4 B4 | c8 F6 G2 | A8 G4 G2 G2- | G2 G2 E4 E2 F2 F2 E2 | F8 z4 A4 | %27
w: ve- nit, _ _|qui de cae- lo|ve- * *|nit, su- per om-|* nes est, su- per om- nes|est, et|
 G2 A4 A2 G2 C2 D4 | G6 c2 c2 d4 B2 | c2 c2 c4 c4 F4- | F4 E4 D8 | G4 A6 G2 G4- | %32
w: qui vi- dit et au- di-|vit, et qui vi- dit|et au- di- vit hoc|_ te- sta-|tur, hoc te- sta-|
 G2 ^FE F4 G4 G4- | G4 F4 E4 E4 | ^F8 G4 =F2 F2 | c4 A2 E4 D2 E2 G2 | G8 z8 | %37
w: * * * * * tur,|_ _ hoc te-|sta- * tur, et|te- sti- mo- ni- um e-|ius|
 D2 E2 D2 D2 E2 F4 E2 | c2 A2 c2 c2 F2 A4 A2 | G2 A2 G4 A4 E3 D | E4 F8 E4 | F16 |] %42
w: ne- mo ac- ci- pit, ne- mo,|ne- mo ac- ci- pit, ne- mo|ac- ci- pit, ne- mo _|_ ac- ci-|pit.|
V:3
 z16 | z8 z4 G4- | G4 A4 G4 F4 | G8 c8- | c4 d4 c4 B4 | c6 B2 A4 A4 | c4 G4 A4 c4- | c4 d4 c4 B4 | %8
w: |Qui|_ de ter- ra|est, qui|_ de ter- ra|est, _ _ de|ter- ra est, qui|_ de ter- ra|
 c4 F2 F2 A2 A2 G4 | G4 A4 G4 F4 | G8 A8 | A4 F4 E8 | D8 d8- | d4 c2 B2 A4 G4 | F4 A8 A4 | %15
w: est, qui de ter- ra est,|qui de ter- ra|est, de|ter- ra est,|de ter-|* * * * ra|est, et de|
 A4 c4 d4 c4 | B4 c8 B4 | c4 e4 f8 | g4 e8 a4- | a2 g2 a2 f2 g2 a2 g4 | a4 a4 g4 g4- | %21
w: ter- ra lo- qui-|tur, lo- qui-|tur, qui de|cae- lo ve-||nit, qui de cae-|
 g2 c2 d4 e4 c2 d2 | e4 a4 g4 G4 | g4 a4 d8 | f8 d4 d2 d2- | d2 d2 c4 c2 c2 c2 c2 | c8 z4 f4 | %27
w: * * * lo ve- *|* nit, qui de|cae- lo ve-|nit, su- per om-|* nes est, su- per om- nes|est, et|
 e2 e4 f2 g2 f2 f4 | e4 g4 a2 a4 g2 | g2 a2 g4 a8 | g4 g4 g8 | e4 c8 B4 | A8 B4 e4- | %33
w: qui vi- dit et au- di-|vit, et qui vi- dit|et au- di- vit|hoc te- sta-|tur, hoc te-|sta- tur, hoc|
 e2 d2 d6 ^cB c4 | d8 z4 d4 | e4 f2 g4 g2 e2 e2 | d4 g6 ^fe f4 | g8 c2 c2 A2 G2 | %38
w: _ te- sta- * * *|tur, et|te- sti- mo- ni- um e-|ius, e- * * *|ius, ne- mo ac- ci-|
 F4 a2 g2 f2 d2 f2 f2 | c4 c8 c4 | c12 c4 | c16 |] %42
w: pit, ne- mo, ne- mo ac- ci-|pit, ne- mo|ac- ci-|pit.|
V:4
 z16 | z16 | C,12 D,4 | C,4 B,,4 C,8 | z16 | z8 z4 F,4- | F,4 G,4 F,4 E,4 | F,8 z8 | z8 z4 C,4- | %9
w: ||Qui de|ter- ra est,||qui|_ de ter- ra|est,|qui|
 C,4 A,,4 C,4 D,4 | C,8 z4 D,4 | ^C,4 D,4 A,,8 | z8 D,6 C,2 | B,,4 C,8 C,4 | F,4 D,8 A,,4 | %15
w: _ de ter- ra|est, de|ter- ra est,|de _|_ ter- ra|est, et qui|
 F,6 E,2 D,4 F,4 | G,4 A,4 G,8 | z8 F,4 A,4 | C12 A,4 | D8 C8 | F,8 C4 B,4 | C4 G,4 C4 C,4 | %22
w: de _ ter- ra|lo- qui- tur,|qui de|cae- lo|ve- *|nit, qui de|cae- lo ve- nit,|
 z8 G,4 D4 | C4 A,4 _B,8 | F,8 G,4 G,2 G,2- | G,2 G,2 C,4 C,2 C,2 C,2 C,2 | F,8 z4 F,4 | %27
w: qui de|cae- lo ve-|nit, su- per om-|* nes est, su- per om- nes|est, et|
 C2 A,4 F,2 E,2 F,2 D,4 | C,4 C4 A,2 D4 G,2 | C2 F,2 C4 F,8 | G,4 G,4 G,8 | C,8 D,4 D,4 | D,8 G,8 | %33
w: qui vi- dit et au- di-|vit, et qui vi- dit|et au- di- vit|hoc te- sta-|tur, hoc te-|sta- tur,|
 A,4 A,4 A,8 | D,8 z4 D,4 | A,4 F,2 C4 G,2 C4 | G,8 A,8 | G,2 E,2 G,2 G,2 C,2 C,4 C,2 | %38
w: hoc te- sta-|tur, et|te- sti- mo- ni- um|e- ius|ne- mo ac- ci- pit, ne- mo|
 F,4 C4 D4 z4 | C2 A,2 C2 C2 F,4 C,4- | C,4 A,,4 C,6 C,2 | F,16 |] %42
w: ac- ci- pit,|ne- mo ac- ci- pit, ne-|* mo ac- ci-|pit.|

